!!!COM:	Josquin des Prez
!!!CDT:	~1450-1521/08/27
!!!OPR:	Missa Malheur me bat
!!!ONM:	3
!!!OTL:	Credo
!!!AGN:	Mass; Credo
!!!SCT:	NJE 9.1
!!!SCA:	New Josquin Edition 9.1
!!!voices: 4
!!!voices-OPR: 4(-6)
**kern	**kern	**kern	**kern
*staff4	*staff3	*staff2	*staff1
*Ivox	*Ivox	*Ivox	*Ivox
*I"Bassus	*I"Tenor	*I"Altus	*I"Superius
*I'B	*I'T	*I'A	*I'S
*>[A,B,C]	*>[A,B,C]	*>[A,B,C]	*>[A,B,C]
*>Patrem[A]	*>Patrem[A]	*>Patrem[A]	*>Patrem[A]
*>Incarnatus[B]	*>Incarnatus[B]	*>Incarnatus[B]	*>Incarnatus[B]
*>Sanctum[C]	*>Sanctum[C]	*>Sanctum[C]	*>Sanctum[C]
*clefF4	*clefGv2	*clefGv2	*clefG2
*>A	*>A	*>A	*>A
*clefF4	*clefGv2	*clefGv2	*clefG2
*k[]	*k[]	*k[]	*k[]
*M2/1	*M2/1	*M2/1	*M2/1
*met(C|)	*met(C|)	*met(C|)	*met(C)
!!primary-mensuration: met(C|)
*	*	*	*rscale:1/2
=1-	=1-	=1-	=1-
!!section: Patrem
!!!OMD: Patrem
!	!	!	!LO:TX:Z=8:t=S by Malcort [Segmentation technique throughout Patrem]
!	!	!	!LO:N:vis=0
0r	0r	1.E	0r
.	.	2F/	.
=2	=2	=2	=2-
0r	0r	2G/	0ryy
.	.	2E/	.
.	.	1A	.
=3	=3	=3	=3
!	!	!	!LO:N:vis=0
0r	1.E	2G/	0r
.	.	2E/	.
.	.	[1B	.
.	2F/	.	.
=4	=4	=4	=4-
0r	2G/	2B\]	0ryy
.	2E/	2G/	.
.	1A	1c	.
=5	=5	=5	=5
!	!	!	!LO:N:vis=0
1.E	2G/	1B	[y0e
.	2E/	.	.
.	[1B	1E	.
2F\	.	.	.
=6	=6	=6	=6-
2G\	2B\]	1r	0e]yy
2E\	2G/	.	.
1A	1c	[1e	.
=7	=7	=7	=7
1G	2B\	1e]	0b
.	2E/	.	.
[1E	2G/	1e	.
.	2A/	.	.
=8	=8	=8	=8-
2E\]	1B	1e	0b
2F\	.	.	.
2G\	1E	1e	.
2E\	.	.	.
=9	=9	=9	=9
1A	1r	1.c	0cc
[1AA	1A	.	.
.	.	4B\	.
.	.	4A/	.
=10	=10	=10	=10-
2AA/]	1A	2.c\	0cc
2BB/	.	.	.
.	.	4d\	.
2C/	1A	1e	.
2AA/	.	.	.
=11	=11	=11	=11
0E	2.G/	2r	0b
.	.	2E/	.
.	4A/	.	.
.	2B\	2.G/	.
.	[2E/	.	.
.	.	4A/	.
=12	=12	=12	=12-
0r	4E/]	2B\	0g
.	4F/	.	.
.	4G/	2E/	.
.	4A/	.	.
.	2B\	2r	.
.	[2c\	[2e\	.
=13	=13	=13	=13
0r	4c\]	4e\]	0a
.	4B\	4d\	.
.	4A/	2e\	.
.	4G/	.	.
.	2F/	2f\	.
.	[2A/	2e\	.
=14	=14	=14	=14-
0r	4A/]	2f\	0a
.	4G/	.	.
.	4F/	1e	.
.	4E/	.	.
.	1F	.	.
.	.	2d\	.
=15	=15	=15	=15
1.E	1E	2e\	1.g
.	.	2B\	.
.	1r	1c	.
2F\	.	.	2a/
=16	=16	=16	=16-
2G\	0r	2B\	1b
2G\	.	2G/	.
1A	.	2.c\	[1e
.	.	4A/	.
=17	=17	=17	=17
2G\	0r	2B\	2e/]
2F\	.	1A	2f/
1E	.	.	1g
.	.	2G/	.
=18	=18	=18	=18-
1D	0r	1d	1a
[1A	.	2r	1e
.	.	[2c\	.
=19	=19	=19	=19
2A\]	0r	2c\]	1f
2F\	.	2A/	.
!	!	!	!LO:N:vis=1
2G\	.	2B\	[y1e
2A\	.	[2c\	.
=20	=20	=20	=20-
1E	0r	4c\]	1e]yy
.	.	4B\	.
.	.	1B	.
1F	.	.	1d
.	.	2A/	.
=21	=21	=21	=21
0E	1r	1c	0e
.	2r	1B	.
.	[2E/	.	.
=22	=22	=22	=22-
1r	2E/]	2c\	0r
.	2F/	2A/	.
1E	1G	2B\	.
.	.	2c\	.
=23	=23	=23	=23
*	*	*	*M2/1
*	*	*	*met(C|)
*	*	*	*rscale:1
1F	1A	2c\	0r
.	.	2d\	.
2E\	2G/	2e\	.
2F\	2F/	2A/	.
=24	=24	=24	=24
1G	1E	2r	0r
.	.	1e	.
1A	1F	.	.
.	.	2d\	.
=25	=25	=25	=25
4AA/	1r	1c	0e
4BB/	.	.	.
4C/	.	.	.
4D\	.	.	.
2E\	2r	1B	.
[2G\	[2E/	.	.
=26	=26	=26	=26
4G\]	2E/]	1r	1b
4F\	.	.	.
2D\	2F/	.	.
1E	1G	1B	1b
=27	=27	=27	=27
1AA	0A	2A/	1cc
.	.	2.c\	.
1r	.	.	1cc
.	.	4d\	.
.	.	[2e\	.
=28	=28	=28	=28
0E	2.G/	4e\]	1b
.	.	4f\	.
.	.	2.g\	.
.	4A/	.	.
.	2B\	.	1g
.	.	4f\	.
.	[2c\	4e\	.
.	.	4d\	.
=29	=29	=29	=29
0F	2c\]	1c	1a
.	1A	.	.
.	.	1A	1a
.	[2c\	.	.
=30	=30	=30	=30
1E	2c\]	2.e\	2.g/
.	4B\	.	.
.	4A/	4d\	4a/
1E	1G	2B\	2b\
.	.	[2c\	[2e/
=31	=31	=31	=31
1E	1r	4c\]	4e/]
.	.	4B\	4f/
.	.	2G/	2g/
2D\	2r	2F/	2a/
2C/	2c\	2G/	2e/
=32	=32	=32	=32
2D\	2B\	2F/	2f/
2E\	2G/	2G/	1e
1F	1A	1D	.
.	.	.	2d/
=33	=33	=33	=33
0E	1B	2r	1e
.	.	2G/	.
.	2r	2G/	1r
.	2E/	2G/	.
=34	=34	=34	=34
*	*	*	*M2/1
*	*	*	*met(C)
*	*	*	*rscale:1/2
2r	2G/	2E/	0b
2E\	2G/	1G	.
2G\	2E/	.	.
2G\	[2B\	4F/	.
.	.	4E/	.
=35	=35	=35	=35-
1E	4B\]	1e	0g
.	4A/	.	.
.	2c\	.	.
2r	1B	1d	.
[2G\	.	.	.
=36	=36	=36	=36
2G\]	1A	2r	0a
4F\	.	2d\	.
4E\	.	.	.
1F	1D	2d\	.
.	.	2d\	.
=37	=37	=37	=37-
2G\	1r	2.B\	0b
2GG/	.	.	.
.	.	4c\	.
2GG/	1G	2d\	.
[2G\	.	2G/	.
=38	=38	=38	=38
2G\]	1A	1c	0cc
4F\	.	.	.
4E\	.	.	.
1F	1A	1A	.
=39	=39	=39	=39-
2G\	1G	0B	1b
2GG/	.	.	.
2GG/	1G	.	[1g
[2G\	.	.	.
=40	=40	=40	=40
2G\]	1E	1r	1g]
4F\	.	.	.
4E\	.	.	.
1D	1F	1d	1a
=41	=41	=41	=41-
1GG	0G	2B\	0b
.	.	2c\	.
2r	.	1d	.
2G\	.	.	.
=42	=42	=42	=42
*	*	*	*M2/1
*	*	*	*met(C|)
*	*	*	*rscale:1
2G\	2r	1G	1b
1G	2G/	.	.
.	2B\	1r	1g
4F\	2c\	.	.
4E\	.	.	.
=43	=43	=43	=43
1F	1A	1r	1a
2G\	1G	2r	1b
2GG/	.	2G/	.
=44	=44	=44	=44
2AA/	1r	2E/	1cc
2AA/	.	2F/	.
2GG/	2r	2.G/	2b\
2GG/	2G/	.	[2g/
.	.	4G/	.
=45	=45	=45	=45
1C	2.E/	2G/	2g/]
.	.	2c\	2a/
.	4F/	.	.
2r	2G/	2B\	1b
2GG/	2G/	2d\	.
=46	=46	=46	=46
*	*	*	*M2/1
*	*	*	*met(C)
*	*	*	*rscale:1/2
2.C/	2G/	4c\	0e
.	.	4d\	.
.	2G/	4e\	.
4D\	.	4f\	.
1E	2G/	2g\	.
.	2G/	[2G/	.
=47	=47	=47	=47-
1D	1A	2G/]	1r
.	.	2F/	.
2r	1r	4G/	[1b
.	.	4A/	.
2GG/	.	4B\	.
.	.	4c\	.
=48	=48	=48	=48
2GG/	2r	2d\	1b]
2GG/	2G/	1e	.
1AA	2E/	.	1cc
.	2F/	2c\	.
=49	=49	=49	=49-
1GG	1G	1d	1b
2r	2.C/	1c	[1ee
[2C/	.	.	.
.	4D/	.	.
=50	=50	=50	=50
4C/]	4E/	0r	1ee]
4D\	4F/	.	.
4E\	4G/	.	.
4F\	4A/	.	.
2G\	2B\	.	2dd\
2A\	2c\	.	2cc\
=51	=51	=51	=51-
2B\	2G/	0r	2dd\
2c\	2A/	.	2cc\
2G\	2E/	.	2b\
2A\	[2c\	.	2a/
=52	=52	=52	=52
2E\	2c\]	1r	1.g
1G	4B\	.	.
.	4A/	.	.
.	1G	2B\	.
4F\	.	2c\	2a/
4E\	.	.	.
=53	=53	=53	=53-
1D	1r	1d	1b
1C	2.E/	1e	[1cc
.	4F/	.	.
=54	=54	=54	=54
1r	2G/	1d	2cc\]
.	2G/	.	2b\
!	!	!	!LO:N:vis=1
2.E\	1G	1B	[y1b
4F\	.	.	.
=55	=55	=55	=55-
2G\	1E	2r	1b]yy
2E\	.	2B\	.
1A	1r	1c	1a
=56	=56	=56	=56
1G	2r	1B	1b
.	1G	.	.
!	!	!	!LO:N:vis=2.
1E	.	1e	[y1cc
.	2G/	.	.
=57	=57	=57	=57-
1F	1A	1c	2cc\]yy
.	.	.	2b\
1D	1F	1f	[1dd
=58	=58	=58	=58
1E	1G	1e	2dd\]
.	.	.	2cc\
!	!	!	!LO:N:vis=1
1F	2.A/	2.c\	[y1cc
.	4F/	4d\	.
=59	=59	=59	=59-
2E\	2G/	0e	1cc]yy
1A	2A/	.	.
.	1E	.	1b
2G#i\	.	.	.
=60	=60	=60	=60
1.A	2r	2r	1cc
.	2c\	2e\	.
!	!	!	!LO:N:vis=1
.	2c\	2e\	[y1a
4G\	2c\	2e\	.
4A\	.	.	.
=61	=61	=61	=61-
2D\	2.d\	2.f\	1a]yy
2F\	.	.	.
.	4c\	4e\	.
2G\	2B\	2d\	2g/
2A\	2A/	2c\	2f/
=62	=62	=62	=62
*	*	*	*M2/1
*	*	*	*met(C|)
*	*	*	*rscale:1
[0E	[0G	1B	1e
.	.	1E	2r
.	.	.	[2b\
=63	=63	=63	=63
0E]	0G]	0g	2b\]
.	.	.	2cc\
.	.	.	2b\
.	.	.	[2ee\
=64	=64	=64	=64
0r	0r	1e	2ee\]
.	.	.	4dd\
.	.	.	4cc\
.	.	1f	4dd\
.	.	.	4cc\
.	.	.	4b\
.	.	.	4a/
=65	=65	=65	=65
0r	0r	2e\	2.g/
.	.	2c\	.
.	.	.	4a/
.	.	2d\	2b\
.	.	[2e\	[2cc\
=66	=66	=66	=66
0r	0r	4e\]	4cc\]
.	.	4d\	4b\
.	.	2d\	1b
.	.	2B\	.
.	.	2c\	2a/
=67	=67	=67	=67
0r	0r	2d\	2b\
.	.	2.e\	2.cc\
.	.	4d\	4b\
.	.	[2f\	[2dd\
=68	=68	=68	=68
0r	0r	4f\]	4dd\]
.	.	4e\	4cc\
.	.	2c\	1cc
.	.	1d	.
.	.	.	2b\
=69	=69	=69	=69
0r	0r	1c	2cc\
.	.	.	1a
.	.	2A/	.
.	.	2B\	4g/
.	.	.	4f/
=70	=70	=70	=70
*	*	*	*M2/1
*	*	*	*met(C)
*	*	*	*rscale:1/2
1r	1r	1c	0e
1A	1c	2r	.
.	.	[2A/	.
=71	=71	=71	=71-
1D	1d	2A/]	1f
.	.	2B\	.
1A	1c	2c\	[1e
.	.	2A/	.
=72	=72	=72	=72
2r	1r	1e	1e]
2E\	.	.	.
!	!	!	!LO:N:vis=1
1F	1c	1A	[y1a
=73	=73	=73	=73-
1F	1A	2r	1a]yy
.	.	2A/	.
1E	1B	1e	1g
=74	=74	=74	=74
1r	1c	1A	1a
1A	2r	2.e\	1cc
.	2c\	.	.
.	.	4f\	.
=75	=75	=75	=75-
1G	1d	2.g\	0b
.	.	4f\	.
1G	1B	2d\	.
.	.	[2e\	.
=76	=76	=76	=76
*	*	*	*M2/1
*	*	*	*met(C|)
*	*	*	*rscale:1
1A	1c	2e\]	1e
.	.	2c\	.
2D\	1A	2d\	2f/
[2A\	.	2e\	[2e/
=77	=77	=77	=77
4A\]	2r	1A	2e/]
4G\	.	.	.
2F\	2A/	.	1a
1E	2.B\	2r	.
.	.	2e\	2g/
.	4c\	.	.
=78	=78	=78	=78
2D\	2d\	2f\	2a/
2A\	2c\	2e\	2cc\
2G\	2d\	1g	1b
2E\	2e\	.	.
=79	=79	=79	=79
*	*	*	*M2/1
*	*	*	*met(C)
*	*	*	*rscale:1/2
2F\	1A	2c\	1a
2D\	.	2d\	.
!	!	!	!LO:N:vis=1
[1A	2r	2e\	[y1cc
.	2A/	[2f\	.
=80	=80	=80	=80-
2A\]	2.c\	4f\]	1cc]yy
.	.	4e\	.
4G\	.	1e	.
4A\	4B\	.	.
2E\	2G/	.	2b\
2F\	2A/	2d\	2a/
=81	=81	=81	=81
!	!	!	!LO:N:vis=0
0E	2B\	0e	[y0g
.	1c	.	.
.	2B\	.	.
=82	=82	=82	=82-
2r	1c	2r	0g]yy
2C/	.	2e\	.
2.c\	2r	2e\	.
.	2c\	2e\	.
4B\	.	.	.
=83	=83	=83	=83
*	*	*	*M2/1
*	*	*	*met(C|)
*	*	*	*rscale:1
2.A\	1c	2f\	2a/
.	.	1e	1cc
4G\	.	.	.
1F	1A	.	.
.	.	2d\	4b\
.	.	.	4a/
=84	=84	=84	=84
[0El	1B	[0el	[0gl
.	1c	.	.
=85	=85	=85	=85
0E]	0Bl	0e]	0g]
!!LO:LB:i:g=z
=86||	=86||	=86||	=86||
*>B	*>B	*>B	*>B
!!section: Et incarnatus est
!!!OMD: Et incarnatus est
*M2/1	*M2/1	*M2/1	*M2/1
*met(C|)	*met(C|)	*met(C|)	*met(C|)
!	!	!	!LO:TX:Z=8:t=[Segmentation technique throughout Et incarnatus est]
1c	0r	0r	0r
2G\	.	.	.
2A\	.	.	.
=87	=87	=87	=87
1E	0r	0r	0r
2.F\	.	.	.
4E\	.	.	.
=88	=88	=88	=88
4C/	1e	0r	0r
4D\	.	.	.
4E\	.	.	.
4F\	.	.	.
2G\	2B\	.	.
2A\	2c\	.	.
=89	=89	=89	=89
2B\	1G	0r	0r
1G	.	.	.
.	2.A/	.	.
2F\	.	.	.
.	4G/	.	.
=90	=90	=90	=90
1G	4E/	1g	0r
.	4F/	.	.
.	4G/	.	.
.	4A/	.	.
1r	2B\	2d\	.
.	2c\	2e\	.
=91	=91	=91	=91
0r	2d\	1B	0r
.	1B	.	.
.	.	2.c\	.
.	2A/	.	.
.	.	4B\	.
=92	=92	=92	=92
1r	0B	0G	1r
1E	.	.	1g
=93	=93	=93	=93
1G	1r	1r	1g
1G	1B	1d	1g
=94	=94	=94	=94
0C	1c	1e	0g
.	1c	1e	.
=95	=95	=95	=95
0F	1.A	1.c	0a
.	2B\	2d\	.
=96	=96	=96	=96
1E	1c	1e	0g
2r	1B	1d	.
[2G\	.	.	.
=97	=97	=97	=97
2G\]	1E	1.e	0r
2G\	.	.	.
2G\	1r	.	.
2A\	.	4d\	.
.	.	4c\	.
=98	=98	=98	=98
2G\	0r	2B\	0r
1A	.	1c	.
4G\	.	4B\	.
4F\	.	4A/	.
=99	=99	=99	=99
[0E	2.B\	0G	0r
.	4B\	.	.
.	2B\	.	.
.	2c\	.	.
=100	=100	=100	=100
0E]	2B\	0r	0r
.	1c	.	.
.	4B\	.	.
.	4A/	.	.
=101	=101	=101	=101
0r	[0G	2.d\	0r
.	.	4d\	.
.	.	2d\	.
.	.	2e\	.
=102	=102	=102	=102
0r	0G]	2d\	0r
.	.	1e	.
.	.	4d\	.
.	.	4c\	.
=103	=103	=103	=103
1r	1r	1B	1r
1E	1B	1e	1g
=104	=104	=104	=104
1G	1B	1d	1g
1C	1c	1e	1g
=105	=105	=105	=105
1G	1B	1d	0g
1E	1c	1e	.
=106	=106	=106	=106
1.F	2.A/	1c	0a
.	4G/	.	.
.	4A/	1f	.
.	4B\	.	.
2E\	[2c\	.	.
=107	=107	=107	=107
1C	2c\]	2.e\	0g
.	4B\	.	.
.	4A/	4c\	.
1r	2G/	2d\	.
.	2C/	[2e\	.
=108	=108	=108	=108
1C	1G	2e\]	1e
.	.	4d\	.
.	.	4c\	.
1G	1r	2B\	2d/
.	.	2G/	[2g/
=109	=109	=109	=109
1E	1G	2B\	2g/]
.	.	2c\	4f/
.	.	.	4e/
1D	1A	1d	4f/
.	.	.	4e/
.	.	.	4d/
.	.	.	4c/
=110	=110	=110	=110
0r	2G/	2r	2B/
.	2E/	2G/	1e
.	2F/	2.A/	.
.	2F/	.	2d/
.	.	4B\	.
=111	=111	=111	=111
0r	2E/	2c\	1e
.	2E/	2.B\	.
.	[1G	.	2d/
.	.	4A/	.
.	.	4G/	[2g/
.	.	4F/	.
=112	=112	=112	=112
0r	1G]	1E	2g/]
.	.	.	4f/
.	.	.	4e/
.	1A	1D	4f/
.	.	.	4e/
.	.	.	4d/
.	.	.	4c/
=113	=113	=113	=113
1E	1r	1G	2B/
.	.	.	1e
1F	2r	1A	.
.	2A/	.	2d/
=114	=114	=114	=114
2E\	2B\	2G/	1e
2C/	2c\	2.A/	.
1D	1A	.	1f
.	.	4D/	.
.	.	2d\	.
=115	=115	=115	=115
1E	2.G/	2B\	1e
.	.	2G/	.
.	4F/	.	.
2F\	2D/	1A	2r
2D\	2d\	.	[2a/
=116	=116	=116	=116
1E	2B\	1e	2a/]
.	2c\	.	2g/
1D	2.d\	1f	1a
.	4c\	.	.
=117	=117	=117	=117
1G	4B\	2d\	1b
.	4A/	.	.
.	2G/	1e	.
1A	2c\	.	1cc
.	2A/	2c\	.
=118	=118	=118	=118
2G\	2B\	2d\	2b\
2E\	2c\	2.e\	2g/
2F\	2A/	.	1a
.	.	4d\	.
2D\	2F/	[2d\	.
=119	=119	=119	=119
1E	1G	2d\]	2g/
.	.	2c\	1g
1D	1A	1d	.
.	.	.	2f#i/
=120	=120	=120	=120
1GG	1G	2r	0g
.	.	2d\	.
2r	1C	2e\	.
2C/	.	2e\	.
=121	=121	=121	=121
1C	2r	1c	1e
.	2G/	.	.
1D	1F	1A	1f
=122	=122	=122	=122
1C	1G	2r	1e
.	.	1c	.
1AA	1A	.	2r
.	.	2A/	[2a/
=123	=123	=123	=123
2r	2E/	2B\	2a/]
2E\	2G/	2c\	2g/
2D\	2F/	[1d	1a
2C/	[2A/	.	.
=124	=124	=124	=124
1BB	4A/]	1d]	1b
.	4G#i/	.	.
.	4G#i/	.	.
.	4F#i/	.	.
2AA/	1A	2e\	1cc
2A\	.	2c\	.
=125	=125	=125	=125
2G\	2B\	2d\	2b\
2E\	2c\	2e\	2g/
2F\	2A/	2c\	1a
2D\	2F/	[2d\	.
=126	=126	=126	=126
1E	1G	4d\]	2g/
.	.	4c\	.
.	.	4c\	1g
.	.	4B\	.
1D	1A	1d	.
.	.	.	2f#i/
=127	=127	=127	=127
1GG	1G	2r	0g
.	.	2G/	.
2r	2G/	2.E/	.
2G\	[2E/	.	.
.	.	4F/	.
=128	=128	=128	=128
2.E\	4E/]	2G/	1r
.	4F/	.	.
.	2G/	2C/	.
4F\	.	.	.
2G\	4C/	1r	1g
.	4D/	.	.
2C/	4E/	.	.
.	4F/	.	.
=129	=129	=129	=129
2E\	4G/	0r	2g/
.	4C/	.	.
2F\	1c	.	1a
1D	.	.	.
.	2B\	.	4g/
.	.	.	4f/
=130	=130	=130	=130
1C	1c	4C/	1.e
.	.	4D/	.
.	.	4E/	.
.	.	4F/	.
1r	1r	2G/	.
.	.	4A/	[2f/
.	.	4G/	.
=131	=131	=131	=131
1r	0r	4A/	4f/]
.	.	4G/	4e/
.	.	1c	2c/
2r	.	.	1d
2G\	.	2B\	.
=132	=132	=132	=132
2E\	2r	1c	1r
2F\	2A/	.	.
2G\	2B\	1r	1g
2C/	2c\	.	.
=133	=133	=133	=133
2E\	2G/	0r	2g/
2F\	2c\	.	1a
*	*M2/1	*	*
*	*met(3)	*	*
1D	3d\	.	.
.	3A/	.	.
.	.	.	4g/
.	3B\	.	.
.	.	.	4f/
=134	=134	=134	=134
*	*M2/1	*	*
*	*met(C|)	*	*
1C	1c	4c\	1.e
.	.	4d\	.
.	.	4e\	.
.	.	4f\	.
1r	1r	2g\	.
.	.	[2a\	[2f/
=135	=135	=135	=135
0r	0r	4a\]	4f/]
.	.	4g\	4e/
.	.	2e\	2c/
.	.	1f	1d
=136	=136	=136	=136
0r	0r	2e\	2.e/
.	.	2c\	.
.	.	.	4f/
.	.	2.c\	2g/
.	.	.	2a/
.	.	4c\	.
=137	=137	=137	=137
2r	2r	1c	2g/
2C/	2c\	.	1cc
2.C/	2.c\	2r	.
.	.	2g\	4b\
4C/	4c\	.	4a/
=138	=138	=138	=138
1G	1d	2.g\	2b\
.	.	.	2dd\
.	.	4g\	.
2r	2r	1g	2cc\
2C/	2c\	.	[2ee\
=139	=139	=139	=139
2.C/	2.c\	2r	4ee\]
.	.	.	4dd\
.	.	2g\	2.cc\
4C/	4c\	.	.
1G	2d\	2g\	.
.	.	.	4b\
.	2d\	2g\	[2dd\
=140	=140	=140	=140
2r	2G/	1g	4dd\]
.	.	.	4cc\
2G\	2G/	.	4b\
.	.	.	4a/
2G\	1d	2r	1b
2G\	.	2g\	.
=141	=141	=141	=141
1.c	2r	2g\	2.e/
.	2c\	2g\	.
.	.	.	4f/
.	2e\	1c	2g/
2F\	2f\	.	2a/
=142	=142	=142	=142
2.c\	1g	2r	2g/
.	.	2c\	1cc
4B\	.	.	.
1A	2r	2e\	.
.	2c\	2f\	4b\
.	.	.	4a/
=143	=143	=143	=143
2G\	2d\	1g	2b\
2G\	2B\	.	2dd\
1A	1c	2r	2cc\
.	.	2c\	[2ee\
=144	=144	=144	=144
1A	2r	2e\	4ee\]
.	.	.	4dd\
.	2c\	2f\	2.cc\
1G	2e\	1g	.
.	.	.	4b\
.	2d\	.	[2dd\
=145	=145	=145	=145
2r	4G/	2r	4dd\]
.	4A/	.	4cc\
2G\	4B\	2g\	4b\
.	4c\	.	4a/
2G\	2d\	2g\	1b
2G\	[2e\	2g\	.
=146	=146	=146	=146
1A	4e\]	1c	1cc
.	4d\	.	.
.	1c	.	.
1G	.	1d	1r
.	2B\	.	.
=147	=147	=147	=147
2C/	1c	2c\	1cc
2c\	.	2e\	.
2B\	1G	2d\	2dd\
2G\	.	[2g\	[2ee\
=148	=148	=148	=148
1A	2r	2g\]	2ee\]
.	2c\	2f\	4dd\
.	.	.	4cc\
2G\	2d\	2g\	2b\
2E\	[2e\	[2c\	[2cc\
=149	=149	=149	=149
1F	2e\]	2c\]	2cc\]
.	2A/	2d\	4b\
.	.	.	4a/
2E\	2B\	2e\	2g/
2C/	2c\	[2A/	[2a/
=150	=150	=150	=150
1D	1F	2A/]	2a/]
.	.	2B\	4g/
.	.	.	4f/
2C/	2r	2c\	2e/
[2D\	[2A/	[2F/	[2f/
=151	=151	=151	=151
2D\]	4A/]	2F/]	4f/]
.	4G/	.	4e/
2C/	2E/	2c\	1e
1D	1F	2A/	.
.	.	2B\	2d/
=152	=152	=152	=152
1.AA	1E	[0c	[0el
.	1A	.	.
2BB/	.	.	.
=153	=153	=153	=153
1C	2G/	0c]	0e_
.	2E/	.	.
1AA	1A	.	.
=154	=154	=154	=154
0El	0Gl	0Bl	0e]
!!LO:LB:i:g=z
=155||	=155||	=155||	=155||
*>C	*>C	*>C	*>C
!!section: Et in spiritum sanctum
!!!OMD: Et in spiritum sanctum
*M2/1	*M2/1	*M2/1	*M2/1
*met(C|)	*met(C|)	*met(C|)	*met(C|)
2r	1.c	2A/	0r
1A	.	2A/	.
.	.	1c	.
2A\	2c\	.	.
=156	=156	=156	=156
2G\	2B\	1d	0r
2F\	2A/	.	.
1E	1G	1e	.
=157	=157	=157	=157
2r	2r	2A/	0e
1A	1c	2A/	.
.	.	1c	.
2A\	2c\	.	.
=158	=158	=158	=158
2G\	2B\	1d	1b
2F\	2A/	.	.
1E	1G	1e	1b
=159	=159	=159	=159
2r	2r	2r	1cc
2A\	2c\	2e\	.
2A\	2c\	2e\	1cc
2A\	2A/	2c\	.
=160	=160	=160	=160
2.G\	2B\	1d	1b
.	2.d\	.	.
4F\	.	.	.
1E	.	1e	1g
.	4c#i\	.	.
.	4c#i\	.	.
.	4B\	.	.
=161	=161	=161	=161
1D	0d	0f	1a
2r	.	.	1a
2D\	.	.	.
=162	=162	=162	=162
2E\	0r	0r	2.g/
2F\	.	.	.
.	.	.	4a/
1G	.	.	2b\
.	.	.	[2e/
=163	=163	=163	=163
2r	0r	0r	4e/]
.	.	.	4f/
2E\	.	.	2g/
2F\	.	.	2a/
2G\	.	.	2e/
=164	=164	=164	=164
2A\	0r	0r	2f/
2E\	.	.	1e
1F	.	.	.
.	.	.	2d/
=165	=165	=165	=165
2E\	2r	2r	1e
2A\	2c\	2e\	.
2A\	2c\	2e\	1r
2A\	2c\	2f\	.
=166	=166	=166	=166
1G	1d	2g\	1b
.	.	2.G/	.
2r	2r	.	1g
.	.	4A/	.
2E\	2e\	4B\	.
.	.	4c\	.
=167	=167	=167	=167
1F	2d\	2A/	1a
.	2c\	2a\	.
1G	1B	2g\	1b
.	.	2f\	.
=168	=168	=168	=168
1A	2r	2e\	1cc
.	2A/	2c\	.
2r	1B	2d\	2b\
2E\	.	[2e\	[2g/
=169	=169	=169	=169
2E\	1c	2e\]	2g/]
2F\	.	2A/	2a/
1G	1B	1d	1b
=170	=170	=170	=170
1A	1c	4c\	1e
.	.	4d\	.
.	.	4e\	.
.	.	4f\	.
2.E\	1B	2g\	2r
.	.	2g\	[2b\
4F\	.	.	.
=171	=171	=171	=171
2G\	2r	2g\	2b\]
2A\	1e	2c\	2cc\
2.E\	.	[1g	2b\
.	2e\	.	[2ee\
4F\	.	.	.
=172	=172	=172	=172
2G\	2e\	2g\]	2ee\]
2A\	2e\	2e\	4dd\
.	.	.	4cc\
1D	1d	1f	4dd\
.	.	.	4cc\
.	.	.	4b\
.	.	.	4a/
=173	=173	=173	=173
2.E\	2B\	2e\	2.g/
.	1e	1g	.
4F\	.	.	4a/
2G\	.	.	2b\
2A\	2e\	2c\	[2cc\
=174	=174	=174	=174
2.E\	2e\	1.g	4cc\]
.	.	.	4b\
.	2e\	.	1b
4F\	.	.	.
2G\	2d\	.	.
2A\	2c\	2c\	2a/
=175	=175	=175	=175
2G\	2B\	2g\	2b\
1A	1e	2e\	2.cc\
.	.	1a	.
.	.	.	4b\
2D\	[2f\	.	[2dd\
=176	=176	=176	=176
1A	4f\]	1f	4dd\]
.	4e\	.	4cc\
.	2c\	.	1cc
1G	1d	1g	.
.	.	.	2b\
=177	=177	=177	=177
1A	1c	1e	2cc\
.	.	.	1a
1D	1d	[1a	.
.	.	.	4g/
.	.	.	4f/
=178	=178	=178	=178
1.A	2r	2a\]	1e
.	1c	2a\	.
.	.	2a\	2f/
2A\	2c\	2A/	[2e/
=179	=179	=179	=179
2A\	2c\	1.e	2e/]
2A\	2c\	.	1a
1E	1B	.	.
.	.	4d\	2g/
.	.	4e\	.
=180	=180	=180	=180
1F	1A	2c\	2a/
.	.	2A/	2cc\
1G	1G	1d	1b
=181	=181	=181	=181
2.A\	1.c	2c\	2a/
.	.	2.A/	1cc
4G\	.	.	.
1F	.	.	.
.	.	4G/	.
.	2d\	2A/	4b\
.	.	.	4a/
=182	=182	=182	=182
1E	2e\	2B\	0g
.	2E/	2e\	.
2r	2G/	2d\	.
2E\	2G/	2e\	.
=183	=183	=183	=183
2G\	2.G/	2d\	1r
2G\	.	1e	.
.	4E/	.	.
2.G\	1E	.	1g
.	.	2E/	.
4E\	.	.	.
=184	=184	=184	=184
1E	2r	2G/	1g
.	2E/	2G/	.
2r	2G/	1E	1g
2E\	2G/	.	.
=185	=185	=185	=185
2G\	1E	2r	0g
2G\	.	2e\	.
2E\	2r	2e\	.
2G\	2B\	2d\	.
=186	=186	=186	=186
2F\	2c\	2.f\	0a
2D\	2d\	.	.
.	.	4e\	.
2A\	2e\	2c\	.
2F\	2A/	2d\	.
=187	=187	=187	=187
2E\	2B\	1e	1g
2G\	2E/	.	.
2E\	2G/	2r	1g
2G\	2E/	[2e\	.
=188	=188	=188	=188
2C/	2G/	4e\]	1e
.	.	4d\	.
2G\	2C/	2c\	.
2G\	2r	2B\	2d/
2E\	2C/	2c\	[2g/
=189	=189	=189	=189
1E	1G	1B	2g/]
.	.	.	4f/
.	.	.	4e/
2r	1A	2r	4f/
.	.	.	4e/
2D\	.	2f\	4d/
.	.	.	4c/
=190	=190	=190	=190
1E	1G	1g	2B/
.	.	.	1e
1F	2r	1a	.
.	2F/	.	2d/
=191	=191	=191	=191
1E	2G/	1g	1e
.	2G/	.	.
2r	1A	2r	1f
2D\	.	2f\	.
=192	=192	=192	=192
2E\	2G/	2g\	1e
2E\	1c	2.e\	.
1F	.	.	2r
.	.	4c\	.
.	2A/	2d\	[2a/
=193	=193	=193	=193
1E	2B\	1e	2a/]
.	2B\	.	2g/
2r	1c	2r	1a
2A\	.	2c\	.
=194	=194	=194	=194
2G\	1B	2d\	1b
2E\	.	1e	.
1A	2r	.	1cc
.	2A/	2c\	.
=195	=195	=195	=195
2G\	2B\	2d\	2b\
2E\	1c	1e	2g/
1F	.	.	1a
.	2A/	2d\	.
=196	=196	=196	=196
2E\	2B\	1e	2g/
2C/	2c\	.	1g
1D	1A	1d	.
.	.	.	2f#i/
=197	=197	=197	=197
1E	1G	2B\	0g
.	.	2E/	.
2r	1r	2G/	.
2E\	.	2G/	.
=198	=198	=198	=198
2G\	2r	4E/	1r
.	.	4F/	.
2G\	2E/	4G/	.
.	.	4A/	.
1E	2G/	4B\	1g
.	.	4E/	.
.	2G/	[2e\	.
=199	=199	=199	=199
0r	2E/	2e\]	2g/
.	1F	2c\	1a
.	.	1d	.
.	4E/	.	4g/
.	4D/	.	4f/
=200	=200	=200	=200
2r	1A	2r	1.e
2A\	.	2c\	.
2G\	1r	2B\	.
[2A\	.	[2c\	[2f/
=201	=201	=201	=201
4A\]	0r	4c\]	4f/]
4G\	.	4B\	4e/
2E\	.	2G/	2c/
1F	.	1A	1d
=202	=202	=202	=202
2E\	0r	2B\	2.e/
2A\	.	2c\	.
.	.	.	4f/
2G\	.	2d\	2g/
[2c\	.	[2e\	2a/
=203	=203	=203	=203
2c\]	0r	2e\]	2g/
4B\	.	4d\	1cc
4A\	.	4c\	.
2c\	.	2e\	.
2d\	.	2f\	4b\
.	.	.	4a/
=204	=204	=204	=204
1B	0r	1d	2b\
.	.	.	2dd\
1A	.	1e	2cc\
.	.	.	[2ee\
=205	=205	=205	=205
1r	1e	1c	4ee\]
.	.	.	4dd\
.	.	.	2.cc\
1F	1f	1A	.
.	.	.	4b\
.	.	.	[2dd\
=206	=206	=206	=206
1G	1d	1B	4dd\]
.	.	.	4cc\
.	.	.	4b\
.	.	.	4a/
1E	2r	1G	1b
.	[2e\	.	.
=207	=207	=207	=207
2r	2e\]	2.A/	1cc
2A\	2c\	.	.
.	.	4c\	.
2G\	2d\	2B\	1r
[2c\	[2e\	2A/	.
=208	=208	=208	=208
2c\]	4e\]	1e	1cc
.	4d\	.	.
2A\	2c\	.	.
2B\	2B\	2r	2dd\
2c\	2A/	[2a\	[2ee\
=209	=209	=209	=209
2A\	2c\	2a\]	2ee\]
2B-\	2d\	2f\	4dd\
.	.	.	4cc\
2G\	2.e\	2g\	2b\
2A\	.	2e\	[2cc\
.	4A/	.	.
=210	=210	=210	=210
2F\	2A/	2f\	2cc\]
2G\	2B\	2d\	4b\
.	.	.	4a/
2E\	2.c\	2e\	2g/
2F\	.	2c\	[2a/
.	4F/	.	.
=211	=211	=211	=211
2D\	2F/	2d\	2a/]
2E\	2G/	2B\	4g/
.	.	.	4f/
2C/	2.A/	2c\	2e/
2D\	.	2A/	[2f/
.	4D/	.	.
=212	=212	=212	=212
2BB-/	2D/	2B-\	4f/]
.	.	.	4e/
2C/	2E/	2G/	1e
2AA/	1F	2A/	.
2BB-/	.	2D/	2d/
=213	=213	=213	=213
1GG	[0El	1B	[0el
1AA	.	1c	.
=214	=214	=214	=214
0EEl	0E]	0Bl	0e]
==	==	==	==
*-	*-	*-	*-
!!!RDF**kern: l=long note in original notation
!!!RDF**kern: i=editorial accidental
!!!ENC:	Jesse Rodin; Victoria Chang 2011/04/17
!!!END:	2011/04/17/
!!!EED:	Jesse Rodin
!!!EEV:	2011/04/17/
!!attribution-level@Jos: 1 (secure)
!!!ONB:	Translated from MusicXML and edited on 2011/09/19/ by Craig Sapp
!!muse2ps: T^@{OPR}^u^@{ONM}{. }@{OTL}^C^@{COM}\n@{SCT}^i2I100v85,90,85,150Q16
